svg/battery_remove_outline.svg

<svg xmlns="http://www.w3.org/2000/svg" viewBox="0 0 24 24"><path d="M13.54 22H7.33C6.6 22 6 21.4 6 20.67V5.33C6 4.6 6.6 4 7.33 4H9V2h6v2h1.67C17.4 4 18 4.6 18 5.33V12c-.7 0-1.37.13-2 .35V6H8v14h4.35c.26.75.65 1.42 1.19 2m8-1.88-1.42 1.42L18 19.41l-2.12 2.13-1.41-1.42L16.59 18l-2.12-2.12 1.41-1.41L18 16.59l2.12-2.12 1.42 1.41L19.41 18z"/></svg>

<svg xmlns="http://www.w3.org/2000/svg" id="mdi-battery-remove-outline" viewBox="0 0 24 24"><path d="M13.54 22H7.33C6.6 22 6 21.4 6 20.67V5.33C6 4.6 6.6 4 7.33 4H9V2H15V4H16.67C17.4 4 18 4.6 18 5.33V12C17.3 12 16.63 12.13 16 12.35V6H8V20H12.35C12.61 20.75 13 21.42 13.54 22M21.54 20.12L20.12 21.54L18 19.41L15.88 21.54L14.47 20.12L16.59 18L14.47 15.88L15.88 14.47L18 16.59L20.12 14.47L21.54 15.88L19.41 18L21.54 20.12Z" /></svg>
